docs/source/_static/getting_started.svg

<svg xmlns="http://www.w3.org/2000/svg" version="1.1" width="64" height="64"
	 viewBox="0 0 256 256" xml:space="preserve">

<defs>
</defs>
<g style="stroke: none; stroke-width: 0; stroke-dasharray: none; stroke-linecap: butt; stroke-linejoin: miter; stroke-miterlimit: 10; fill: none; fill-rule: nonzero; opacity: 1;" transform="translate(1.4065934065934016 1.4065934065934016) scale(2.81 2.81)" >
	<path d="M 52.747 50.205 c -3.46 0 -6.713 -1.347 -9.159 -3.793 c -5.05 -5.051 -5.05 -13.268 0 -18.318 l 0 0 l 0 0 c 2.446 -2.447 5.699 -3.794 9.159 -3.794 c 3.46 0 6.713 1.347 9.159 3.794 c 2.447 2.446 3.794 5.699 3.794 9.159 c 0 3.46 -1.347 6.713 -3.794 9.159 C 59.46 48.858 56.207 50.205 52.747 50.205 z M 52.747 28.302 c -2.391 0 -4.639 0.931 -6.33 2.622 l 0 0 c -3.491 3.49 -3.49 9.169 0 12.66 c 1.69 1.69 3.938 2.621 6.33 2.621 c 2.391 0 4.639 -0.931 6.33 -2.621 c 1.691 -1.691 2.622 -3.939 2.622 -6.33 c 0 -2.391 -0.931 -4.639 -2.622 -6.33 C 57.386 29.232 55.138 28.302 52.747 28.302 z M 45.002 29.509 h 0.01 H 45.002 z" style="stroke: none; stroke-width: 1; stroke-dasharray: none; stroke-linecap: butt; stroke-linejoin: miter; stroke-miterlimit: 10; fill: rgb(74,163,196); fill-rule: nonzero; opacity: 1;" transform=" matrix(1 0 0 1 0 0) " stroke-linecap="round" />
	<path d="M 84.279 35.32 c 5.984 -13.358 7.338 -25.175 3.714 -32.419 c -0.194 -0.387 -0.508 -0.7 -0.895 -0.894 C 79.851 -1.618 68.035 -0.264 54.68 5.721 c -0.016 0.007 -0.028 0.019 -0.044 0.026 c -6.421 2.881 -12.685 6.611 -18.109 10.72 l -11.965 0.291 c -1.58 0.039 -3.129 0.495 -4.478 1.32 L 2.952 28.554 c -1.729 1.057 -2.788 2.897 -2.832 4.923 c -0.044 2.026 0.933 3.911 2.614 5.043 l 12.264 8.254 l -2.031 9.787 c -0.137 0.66 0.068 1.344 0.545 1.821 l 18.107 18.106 c 0.379 0.379 0.889 0.586 1.414 0.586 c 0.135 0 0.271 -0.014 0.406 -0.042 l 9.777 -2.028 l 8.235 12.235 c 1.107 1.644 2.934 2.615 4.91 2.615 c 0.044 0 0.088 -0.001 0.132 -0.002 c 2.026 -0.044 3.866 -1.103 4.923 -2.832 l 10.475 -17.132 c 0.824 -1.348 1.282 -2.896 1.32 -4.479 l 0.29 -11.895 c 4.12 -5.433 7.861 -11.71 10.749 -18.146 C 84.259 35.351 84.272 35.337 84.279 35.32 z M 84.698 5.303 c 2.454 5.697 1.37 15.096 -2.923 25.693 L 59.004 8.225 C 69.602 3.932 79 2.848 84.698 5.303 z M 4.12 33.565 c 0.015 -0.667 0.349 -1.249 0.919 -1.597 l 17.132 -10.476 c 0.75 -0.459 1.611 -0.712 2.489 -0.734 l 6.848 -0.167 c -0.892 0.801 -1.749 1.61 -2.563 2.424 c -5.695 5.695 -10.098 12.382 -12.732 19.34 c -0.041 0.108 -0.075 0.226 -0.114 0.336 L 4.968 35.2 C 4.415 34.828 4.106 34.231 4.12 33.565 z M 33.685 72.895 l -16.58 -16.578 l 1.329 -6.408 l 21.657 21.657 L 33.685 72.895 z M 69.213 65.311 c -0.022 0.879 -0.275 1.741 -0.734 2.49 L 58.004 84.933 c -0.349 0.569 -0.931 0.904 -1.598 0.918 c -0.634 0.04 -1.262 -0.294 -1.635 -0.848 l -7.47 -11.099 c 0.113 -0.041 0.233 -0.075 0.345 -0.117 c 6.956 -2.632 13.643 -7.035 19.339 -12.731 c 0.804 -0.804 1.603 -1.65 2.395 -2.531 L 69.213 65.311 z M 64.155 58.227 c -5.298 5.297 -11.497 9.384 -17.926 11.818 c -0.478 0.181 -0.974 0.346 -1.501 0.498 L 19.457 45.273 c 0.153 -0.528 0.318 -1.025 0.498 -1.501 c 2.435 -6.43 6.522 -12.629 11.819 -17.926 c 6.018 -6.017 14.449 -11.763 23.296 -15.896 L 80.052 34.93 C 75.918 43.779 70.171 52.21 64.155 58.227 z" style="stroke: none; stroke-width: 1; stroke-dasharray: none; stroke-linecap: butt; stroke-linejoin: miter; stroke-miterlimit: 10; fill: rgb(74,163,196); fill-rule: nonzero; opacity: 1;" transform=" matrix(1 0 0 1 0 0) " stroke-linecap="round" />
	<path d="M 1.989 90.011 c -0.512 0 -1.024 -0.195 -1.414 -0.586 c -0.781 -0.781 -0.781 -2.047 0 -2.829 l 17.311 -17.311 c 0.78 -0.781 2.048 -0.781 2.829 0 c 0.781 0.781 0.781 2.047 0 2.829 L 3.404 89.425 C 3.014 89.816 2.501 90.011 1.989 90.011 z" style="stroke: none; stroke-width: 1; stroke-dasharray: none; stroke-linecap: butt; stroke-linejoin: miter; stroke-miterlimit: 10; fill: rgb(74,163,196); fill-rule: nonzero; opacity: 1;" transform=" matrix(1 0 0 1 0 0) " stroke-linecap="round" />
	<path d="M 2.81 77.773 c -0.512 0 -1.024 -0.195 -1.414 -0.586 c -0.781 -0.781 -0.781 -2.047 0 -2.829 l 10.781 -10.781 c 0.78 -0.781 2.047 -0.781 2.829 0 c 0.781 0.781 0.781 2.047 0 2.829 L 4.225 77.187 C 3.835 77.577 3.322 77.773 2.81 77.773 z" style="stroke: none; stroke-width: 1; stroke-dasharray: none; stroke-linecap: butt; stroke-linejoin: miter; stroke-miterlimit: 10; fill: rgb(74,163,196); fill-rule: nonzero; opacity: 1;" transform=" matrix(1 0 0 1 0 0) " stroke-linecap="round" />
	<path d="M 14.227 89.19 c -0.512 0 -1.024 -0.195 -1.414 -0.586 c -0.781 -0.781 -0.781 -2.047 0 -2.829 l 10.781 -10.781 c 0.78 -0.781 2.047 -0.781 2.829 0 s 0.781 2.047 0 2.829 L 15.642 88.604 C 15.251 88.994 14.739 89.19 14.227 89.19 z" style="stroke: none; stroke-width: 1; stroke-dasharray: none; stroke-linecap: butt; stroke-linejoin: miter; stroke-miterlimit: 10; fill: rgb(74,163,196); fill-rule: nonzero; opacity: 1;" transform=" matrix(1 0 0 1 0 0) " stroke-linecap="round" />
</g>
</svg>

<?xml version="1.0" encoding="UTF-8" standalone="no"?>
<svg
        version="1.1"
        width="80"
        height="80"
        viewBox="0 0 320 320"
        xml:space="preserve"
        id="svg709"
        sodipodi:docname="getting_started.svg"
        inkscape:version="1.2.2 (b0a8486541, 2022-12-01)"
        xmlns:inkscape="http://www.inkscape.org/namespaces/inkscape"
        xmlns:sodipodi="http://sodipodi.sourceforge.net/DTD/sodipodi-0.dtd"
        xmlns="http://www.w3.org/2000/svg"
><sodipodi:namedview
   id="namedview711"
   pagecolor="#ffffff"
   bordercolor="#666666"
   borderopacity="1.0"
   inkscape:showpageshadow="2"
   inkscape:pageopacity="0.0"
   inkscape:pagecheckerboard="false"
   inkscape:deskcolor="#d1d1d1"
   showgrid="false"
   inkscape:zoom="16.046875"
   inkscape:cx="27.918208"
   inkscape:cy="31.968841"
   inkscape:window-width="3840"
   inkscape:window-height="2107"
   inkscape:window-x="0"
   inkscape:window-y="26"
   inkscape:window-maximized="1"
   inkscape:current-layer="svg709" />

<defs
   id="defs695">
</defs>
<g
   style="opacity:1;fill:none;fill-rule:nonzero;stroke:none;stroke-width:0;stroke-linecap:butt;stroke-linejoin:miter;stroke-miterlimit:10;stroke-dasharray:none"
   transform="matrix(2.81,0,0,2.81,33.580804,33.519826)"
   id="g707">
	<path
   d="m 52.747,50.205 c -3.46,0 -6.713,-1.347 -9.159,-3.793 -5.05,-5.051 -5.05,-13.268 0,-18.318 v 0 0 c 2.446,-2.447 5.699,-3.794 9.159,-3.794 3.46,0 6.713,1.347 9.159,3.794 2.447,2.446 3.794,5.699 3.794,9.159 0,3.46 -1.347,6.713 -3.794,9.159 -2.446,2.446 -5.699,3.793 -9.159,3.793 z m 0,-21.903 c -2.391,0 -4.639,0.931 -6.33,2.622 v 0 c -3.491,3.49 -3.49,9.169 0,12.66 1.69,1.69 3.938,2.621 6.33,2.621 2.391,0 4.639,-0.931 6.33,-2.621 1.691,-1.691 2.622,-3.939 2.622,-6.33 0,-2.391 -0.931,-4.639 -2.622,-6.33 -1.691,-1.692 -3.939,-2.622 -6.33,-2.622 z m -7.745,1.207 h 0.01 z"
   style="opacity:1;fill:#4aa3c4;fill-rule:nonzero;stroke:none;stroke-width:1;stroke-linecap:butt;stroke-linejoin:miter;stroke-miterlimit:10;stroke-dasharray:none"
   stroke-linecap="round"
   id="path697" />
	<path
   d="M 84.279,35.32 C 90.263,21.962 91.617,10.145 87.993,2.901 87.799,2.514 87.485,2.201 87.098,2.007 79.851,-1.618 68.035,-0.264 54.68,5.721 54.664,5.728 54.652,5.74 54.636,5.747 48.215,8.628 41.951,12.358 36.527,16.467 l -11.965,0.291 c -1.58,0.039 -3.129,0.495 -4.478,1.32 L 2.952,28.554 c -1.729,1.057 -2.788,2.897 -2.832,4.923 -0.044,2.026 0.933,3.911 2.614,5.043 l 12.264,8.254 -2.031,9.787 c -0.137,0.66 0.068,1.344 0.545,1.821 l 18.107,18.106 c 0.379,0.379 0.889,0.586 1.414,0.586 0.135,0 0.271,-0.014 0.406,-0.042 l 9.777,-2.028 8.235,12.235 c 1.107,1.644 2.934,2.615 4.91,2.615 0.044,0 0.088,-0.001 0.132,-0.002 2.026,-0.044 3.866,-1.103 4.923,-2.832 L 71.891,69.888 c 0.824,-1.348 1.282,-2.896 1.32,-4.479 l 0.29,-11.895 c 4.12,-5.433 7.861,-11.71 10.749,-18.146 0.009,-0.017 0.022,-0.031 0.029,-0.048 z M 84.698,5.303 C 87.152,11 86.068,20.399 81.775,30.996 L 59.004,8.225 C 69.602,3.932 79,2.848 84.698,5.303 Z M 4.12,33.565 C 4.135,32.898 4.469,32.316 5.039,31.968 L 22.171,21.492 c 0.75,-0.459 1.611,-0.712 2.489,-0.734 l 6.848,-0.167 c -0.892,0.801 -1.749,1.61 -2.563,2.424 -5.695,5.695 -10.098,12.382 -12.732,19.34 -0.041,0.108 -0.075,0.226 -0.114,0.336 L 4.968,35.2 C 4.415,34.828 4.106,34.231 4.12,33.565 Z m 29.565,39.33 -16.58,-16.578 1.329,-6.408 21.657,21.657 z m 35.528,-7.584 c -0.022,0.879 -0.275,1.741 -0.734,2.49 L 58.004,84.933 c -0.349,0.569 -0.931,0.904 -1.598,0.918 -0.634,0.04 -1.262,-0.294 -1.635,-0.848 l -7.47,-11.099 c 0.113,-0.041 0.233,-0.075 0.345,-0.117 6.956,-2.632 13.643,-7.035 19.339,-12.731 0.804,-0.804 1.603,-1.65 2.395,-2.531 z m -5.058,-7.084 c -5.298,5.297 -11.497,9.384 -17.926,11.818 -0.478,0.181 -0.974,0.346 -1.501,0.498 L 19.457,45.273 C 19.61,44.745 19.775,44.248 19.955,43.772 22.39,37.342 26.477,31.143 31.774,25.846 37.792,19.829 46.223,14.083 55.07,9.95 l 24.982,24.98 c -4.134,8.849 -9.881,17.28 -15.897,23.297 z"
   style="opacity:1;fill:#4aa3c4;fill-rule:nonzero;stroke:none;stroke-width:1;stroke-linecap:butt;stroke-linejoin:miter;stroke-miterlimit:10;stroke-dasharray:none"
   stroke-linecap="round"
   id="path699" />
	<path
   d="m 1.989,90.011 c -0.512,0 -1.024,-0.195 -1.414,-0.586 -0.781,-0.781 -0.781,-2.047 0,-2.829 L 17.886,69.285 c 0.78,-0.781 2.048,-0.781 2.829,0 0.781,0.781 0.781,2.047 0,2.829 L 3.404,89.425 c -0.39,0.391 -0.903,0.586 -1.415,0.586 z"
   style="opacity:1;fill:#4aa3c4;fill-rule:nonzero;stroke:none;stroke-width:1;stroke-linecap:butt;stroke-linejoin:miter;stroke-miterlimit:10;stroke-dasharray:none"
   stroke-linecap="round"
   id="path701" />
	<path
   d="m 2.81,77.773 c -0.512,0 -1.024,-0.195 -1.414,-0.586 -0.781,-0.781 -0.781,-2.047 0,-2.829 L 12.177,63.577 c 0.78,-0.781 2.047,-0.781 2.829,0 0.781,0.781 0.781,2.047 0,2.829 L 4.225,77.187 c -0.39,0.39 -0.903,0.586 -1.415,0.586 z"
   style="opacity:1;fill:#4aa3c4;fill-rule:nonzero;stroke:none;stroke-width:1;stroke-linecap:butt;stroke-linejoin:miter;stroke-miterlimit:10;stroke-dasharray:none"
   stroke-linecap="round"
   id="path703" />
	<path
   d="m 14.227,89.19 c -0.512,0 -1.024,-0.195 -1.414,-0.586 -0.781,-0.781 -0.781,-2.047 0,-2.829 L 23.594,74.994 c 0.78,-0.781 2.047,-0.781 2.829,0 0.782,0.781 0.781,2.047 0,2.829 L 15.642,88.604 c -0.391,0.39 -0.903,0.586 -1.415,0.586 z"
   style="opacity:1;fill:#4aa3c4;fill-rule:nonzero;stroke:none;stroke-width:1;stroke-linecap:butt;stroke-linejoin:miter;stroke-miterlimit:10;stroke-dasharray:none"
   stroke-linecap="round"
   id="path705" />
</g>
</svg>
